packages/icons/src/components/Logo/assets/dark/apache-spark.svg

<svg width="20" height="20" viewBox="0 0 20 20" fill="none" xmlns="http://www.w3.org/2000/svg">
<path fill-rule="evenodd" clip-rule="evenodd" d="M18.2946 10.0527C18.2773 10.0156 18.2695 9.99701 18.2601 9.97923C18.0095 9.50247 17.7595 9.02572 17.5064 8.54896C17.481 8.50116 17.4842 8.47294 17.5189 8.43171C17.9177 7.96591 18.3114 7.49753 18.7108 7.03366C18.7249 7.0173 18.7375 6.99997 18.7428 6.97078C18.6268 7.001 18.5108 7.03089 18.3942 7.06162C17.9129 7.18919 17.4278 7.3161 16.9511 7.4456C16.9063 7.45765 16.886 7.44457 16.8634 7.40733C16.5903 6.95055 16.3152 6.49248 16.0388 6.0415C16.0247 6.01785 16.0093 5.99492 15.9791 5.97514C15.957 6.0969 15.9345 6.21802 15.9128 6.33979C15.8361 6.76951 15.7594 7.19666 15.6834 7.62831C15.6751 7.67464 15.6638 7.72109 15.6598 7.76747C15.656 7.8118 15.6331 7.82816 15.5928 7.84092C15.0252 8.01938 14.4589 8.19913 13.8919 8.37888C13.867 8.38667 13.8426 8.39698 13.8159 8.42114C14.2798 8.6054 14.7436 8.78966 15.2139 8.97714C15.1968 8.99073 15.1855 9.0013 15.1729 9.00935C14.883 9.19683 14.5924 9.38431 14.3031 9.57244C14.2684 9.59512 14.241 9.59834 14.202 9.58075C13.8554 9.42484 13.5062 9.2715 13.1583 9.11688C13.0024 9.0473 12.8626 8.95517 12.7537 8.82116C12.5069 8.51965 12.5559 8.1769 12.8845 7.9643C12.9921 7.89536 13.1145 7.84446 13.2362 7.80452C13.7922 7.62348 14.3508 7.44889 14.9049 7.27365C14.9517 7.25877 14.9732 7.23789 14.9822 7.18732C15.0569 6.75695 15.1336 6.32401 15.2116 5.89879C15.253 5.66879 15.2749 5.43364 15.3868 5.22232C15.4296 5.14114 15.4809 5.0619 15.5427 4.99425C15.7643 4.74814 16.0729 4.73912 16.3094 4.97312C16.3886 5.05236 16.4563 5.14514 16.5149 5.24113C16.7726 5.66183 17.0264 6.08511 17.2816 6.51033C17.3115 6.56039 17.3385 6.57044 17.3937 6.55588C18.0154 6.38901 18.6371 6.22473 19.262 6.06044C19.3909 6.02649 19.5204 6.01418 19.6525 6.03886C19.9391 6.09246 20.0648 6.31073 19.9675 6.58841C19.9235 6.71469 19.847 6.82099 19.7613 6.92214C19.3271 7.43304 18.8916 7.94651 18.4599 8.45548C18.4244 8.49723 18.4237 8.52699 18.4483 8.57403C18.7086 9.06431 18.9663 9.5533 19.2279 10.0494C19.2898 10.1666 19.3374 10.2891 19.3387 10.4237C19.3417 10.7304 19.1171 10.9816 18.8123 11.0267C18.6416 11.0517 18.4831 11.0152 18.3227 10.9658C17.9329 10.8454 17.5431 10.7268 17.1501 10.6089C17.1139 10.5981 17.1 10.5837 17.0935 10.5448C17.0487 10.2697 16.9994 9.9952 16.9518 9.7201C16.9505 9.71257 16.9528 9.70451 16.9541 9.68763C17.3993 9.81069 17.8432 9.93181 18.3006 10.0587" fill="white"/>
<path d="M8.8484 9.57093C8.92894 9.57093 9.00882 9.55109 9.08162 9.51785L9.08201 9.51746L9.11068 9.27264C9.05141 9.32077 8.96379 9.35575 8.87295 9.35575C8.72477 9.35575 8.63071 9.23849 8.63071 9.08902C8.63071 8.89252 8.79757 8.72308 8.98505 8.72308C9.07525 8.72308 9.1485 8.75807 9.19379 8.80813L9.22401 8.56137C9.16345 8.52819 9.08936 8.50854 9.00753 8.50854C8.68025 8.50854 8.40515 8.78364 8.40515 9.11093C8.40515 9.3667 8.57588 9.57093 8.8484 9.57093Z" fill="white"/>
<path fill-rule="evenodd" clip-rule="evenodd" d="M5.15874 9.33231H4.80633L4.69423 9.552H4.44426L4.9951 8.52118H5.23606L5.42354 9.552H5.19225L5.15874 9.33231ZM4.91328 9.12485H5.12524L5.07512 8.80401L4.91328 9.12485Z" fill="white"/>
<path d="M3.77292 9.73045L3.76742 9.73455C3.7486 9.70932 3.73014 9.68439 3.71188 9.65973C3.659 9.58828 3.60779 9.5191 3.55413 9.45168C3.30931 9.14243 2.99169 8.95643 2.59418 8.94207C1.89838 8.92274 1.37202 9.2249 1.0093 9.81182C0.863439 10.0463 0.807324 10.3105 0.846302 10.5914C0.88238 10.8465 0.995126 11.0694 1.1607 11.2614C1.31367 11.4413 1.47407 11.6147 1.63441 11.7881C1.72393 11.885 1.81343 11.9818 1.9016 12.0796L1.91929 12.0992C2.01669 12.2068 2.11516 12.3156 2.19474 12.4359C2.34163 12.6575 2.30427 12.9036 2.10583 13.0802C2.04076 13.1381 1.9641 13.1881 1.88485 13.2238C1.57883 13.3623 1.27474 13.2773 1.08597 12.9971C1.04223 12.9315 1.00861 12.8591 0.975009 12.7867C0.960099 12.7546 0.945193 12.7225 0.929412 12.691C0.922886 12.6775 0.917312 12.6635 0.911174 12.6481C0.908284 12.6409 0.905265 12.6333 0.901966 12.6253C0.717305 12.724 0.533862 12.8222 0.349089 12.9211L0 13.1079C0.0149792 13.1448 0.0292829 13.1816 0.0434698 13.2181C0.0762663 13.3024 0.108441 13.3852 0.146892 13.4648C0.302803 13.7843 0.545689 14.0131 0.894235 14.1155C1.15581 14.1928 1.42382 14.2013 1.69312 14.1578C2.30517 14.0612 2.76581 13.7423 3.05895 13.1979C3.21725 12.9015 3.28419 12.5858 3.22904 12.2508C3.18265 11.966 3.03254 11.7354 2.84506 11.5292C2.73056 11.4026 2.61269 11.2795 2.49486 11.1564C2.40053 11.0579 2.3062 10.9594 2.21368 10.8592C2.08805 10.7233 1.96564 10.5841 1.85354 10.4372C1.75188 10.3038 1.76605 10.1357 1.87493 10.0178C1.9967 9.88559 2.15003 9.8267 2.32913 9.83933C2.54432 9.85415 2.6925 9.97849 2.81169 10.1454C2.84274 10.1889 2.8707 10.2345 2.89907 10.2807C2.91307 10.3036 2.9272 10.3266 2.94183 10.3496C3.09133 10.2381 3.24083 10.1268 3.3919 10.0143C3.5157 9.92209 3.64065 9.82905 3.76742 9.73455L3.76932 9.73708L3.77292 9.73045Z" fill="white"/>
<path d="M17.5194 14.0792L17.5215 14.0792L17.5194 14.0839V14.0792Z" fill="white"/>
<path d="M17.5194 14.0792C17.4246 14.0791 17.3299 14.0788 17.2352 14.0786H17.2341C16.9785 14.078 16.7226 14.0774 16.4649 14.0785C16.4183 14.0785 16.3921 14.0652 16.3663 14.0256C16.2 13.7724 16.033 13.5189 15.8659 13.2656C15.6149 12.8847 15.364 12.5042 15.1164 12.125C15.1079 12.1122 15.099 12.0996 15.0876 12.0833L15.0653 12.0516C14.9758 12.7344 14.8875 13.4043 14.7993 14.0743L13.878 14.0746C13.8816 14.0444 13.8851 14.0146 13.8886 13.9849C13.8954 13.9265 13.9022 13.869 13.9097 13.8117C13.9624 13.4058 14.0156 13.0022 14.0688 12.5982L14.0691 12.5962C14.1062 12.3147 14.1433 12.0329 14.1803 11.7501L14.2449 11.2576C14.3096 10.7646 14.3742 10.2716 14.4399 9.77864C14.4425 9.75925 14.4555 9.73432 14.4714 9.72401C14.7883 9.51725 15.1065 9.31242 15.4247 9.10759C15.4274 9.10578 15.4311 9.10481 15.4369 9.10342C15.4408 9.10249 15.4458 9.10131 15.4523 9.0994C15.3563 9.83385 15.261 10.5619 15.165 11.2899L15.1763 11.2977C15.3319 11.1255 15.4874 10.9531 15.6432 10.7803L15.651 10.7717C15.9928 10.3927 16.3362 10.012 16.6839 9.62904C16.6912 9.67118 16.698 9.71032 16.7045 9.74794L16.7053 9.75271L16.7056 9.75398L16.7069 9.76137L16.7071 9.76277L16.7239 9.85969C16.7341 9.91918 16.7443 9.97877 16.7544 10.0384C16.7797 10.1874 16.805 10.3367 16.8322 10.4853C16.84 10.5273 16.8286 10.5529 16.8007 10.5826C16.4779 10.9201 16.1565 11.259 15.8343 11.6005C15.8254 11.6099 15.8168 11.6195 15.8076 11.6297L15.7908 11.6484C15.7944 11.6541 15.7978 11.6598 15.8012 11.6654C15.8075 11.6757 15.8135 11.6857 15.8202 11.6951C16.1901 12.2149 16.5594 12.7347 16.9286 13.2544L17.4824 14.0338C17.4892 14.0433 17.498 14.0514 17.5068 14.0595C17.5111 14.0635 17.5153 14.0674 17.5194 14.0715V14.0792Z" fill="white"/>
<path fill-rule="evenodd" clip-rule="evenodd" d="M4.16751 14.0187C4.17757 13.9435 4.18777 13.8673 4.19812 13.7893L4.20405 13.7992C4.21298 13.8049 4.22074 13.8096 4.22769 13.8139C4.24029 13.8217 4.25022 13.8278 4.25965 13.8344C4.65909 14.1142 5.10557 14.1933 5.58039 14.1217C6.03781 14.0522 6.43854 13.8473 6.77227 13.5245C7.27802 13.0284 7.54152 12.4357 7.46163 11.7206C7.40365 11.2181 7.15754 10.8122 6.72717 10.5351C6.29552 10.2568 5.82327 10.2072 5.32912 10.3142C4.4787 10.501 3.74939 11.2355 3.6025 12.0923C3.54441 12.4301 3.50206 12.769 3.4596 13.1089C3.44132 13.2552 3.42301 13.4017 3.40343 13.5484C3.35757 13.8923 3.31243 14.2362 3.26728 14.5802L3.26721 14.5807L3.23527 14.824C3.22476 14.9043 3.21468 14.9849 3.2046 15.0655L3.18921 15.188C3.19403 15.1894 3.19786 15.1907 3.20107 15.1918C3.20691 15.1938 3.21066 15.195 3.2144 15.195C3.31262 15.1952 3.41075 15.1953 3.50881 15.1954C3.66406 15.1955 3.81952 15.1957 3.97463 15.1962C4.00684 15.1965 4.01593 15.1832 4.01966 15.1532C4.04939 14.9136 4.0806 14.6762 4.11172 14.4394L4.11952 14.3801C4.13516 14.2604 4.15115 14.1409 4.16751 14.0187ZM6.62149 11.9474C6.62555 11.973 6.62932 11.9967 6.63343 12.0176H6.63788C6.61018 12.5233 6.3937 12.8796 5.99362 13.1193C5.69081 13.3003 5.36482 13.3512 5.02722 13.2294C4.60845 13.0813 4.38296 12.6754 4.42548 12.2566C4.47702 11.6877 4.87582 11.2516 5.43053 11.1227C5.93499 11.0074 6.4227 11.2657 6.57732 11.7418C6.59996 11.8117 6.6116 11.8851 6.62149 11.9474Z" fill="white"/>
<path d="M10.4906 12.9196L10.499 12.8551L10.5016 12.8498C10.3586 12.9987 10.2091 13.1095 10.0326 13.1791C9.68467 13.3163 9.34644 13.3156 9.02753 13.1037C8.70005 12.8846 8.55979 12.4903 8.6487 12.0793C8.77755 11.4595 9.38187 11.0201 10.0145 11.0871C10.3206 11.1194 10.5525 11.2682 10.691 11.5484C10.8216 11.8119 10.842 12.0948 10.8096 12.3795C10.7736 12.6947 10.7313 13.0101 10.689 13.3252C10.6699 13.4675 10.6509 13.6097 10.6324 13.7518C10.6238 13.8175 10.6161 13.8832 10.6083 13.9497L10.5999 14.0205H11.4181L11.4201 14.0096C11.4225 13.9966 11.4246 13.9855 11.4262 13.9747C11.439 13.8781 11.4519 13.7814 11.4649 13.6845L11.465 13.6839C11.5047 13.3865 11.5447 13.0874 11.5821 12.7892C11.5898 12.7277 11.598 12.6661 11.6062 12.6044C11.6349 12.3878 11.6638 12.1703 11.6736 11.9517C11.6929 11.5265 11.5628 11.1399 11.2819 10.8178C10.8695 10.3442 10.338 10.18 9.72919 10.2547C8.68549 10.3835 7.81464 11.3048 7.77063 12.355C7.75195 12.806 7.87887 13.2157 8.18167 13.5598C8.74218 14.2001 9.64415 14.2446 10.3335 13.9263C10.3479 13.9198 10.3612 13.8966 10.3637 13.8795C10.4061 13.5649 10.4473 13.2497 10.4906 12.9196Z" fill="white"/>
<path d="M13.978 10.3618L13.9353 10.6852C13.9122 10.8605 13.8891 11.0354 13.8659 11.2123C13.8125 11.2123 13.7594 11.2122 13.7067 11.2121C13.5876 11.2119 13.4695 11.2117 13.3518 11.2125C13.2139 11.2136 13.0883 11.3027 13.0464 11.4316C13.032 11.4766 13.0257 11.5245 13.0195 11.5719L13.0172 11.5888C12.9309 12.2459 12.8452 12.8966 12.7595 13.5473C12.7457 13.6523 12.7323 13.7573 12.7187 13.8629L12.6954 14.0447H11.8385L11.8514 13.942C11.8627 13.8522 11.8738 13.7639 11.8853 13.6755L11.8957 13.5961C11.9478 13.1984 12.0002 12.799 12.0528 12.4063C12.066 12.3068 12.0788 12.2071 12.0916 12.1074L12.0917 12.1068C12.1261 11.8397 12.1605 11.5718 12.2022 11.3047C12.2789 10.815 12.766 10.3769 13.2588 10.3576C13.4206 10.3505 13.5826 10.3523 13.7468 10.3542C13.822 10.355 13.8977 10.3558 13.9739 10.3558L13.978 10.3618Z" fill="white"/>
<path d="M18.5523 13.7184V14.0792H18.6241V13.6469H18.5146L18.3877 13.9755L18.2588 13.6469H18.1486V14.0792H18.2195V13.7184H18.2218L18.3635 14.0792H18.4085L18.5503 13.7184H18.5523Z" fill="white"/>
<path d="M17.9248 14.0792V13.7049H18.0607V13.647H17.7186V13.7049H17.8539V14.0792H17.9248Z" fill="white"/>
<path fill-rule="evenodd" clip-rule="evenodd" d="M6.44661 8.52439H6.11675L6.11546 8.52246L5.93378 9.55328H6.14896L6.21596 9.17639H6.35834C6.58255 9.17639 6.73974 9.02692 6.73974 8.804C6.73974 8.62748 6.61927 8.52439 6.44661 8.52439ZM6.29521 8.73185H6.42045C6.47676 8.73185 6.51451 8.76374 6.51451 8.82591C6.51451 8.91978 6.4546 8.96958 6.37857 8.96958H6.25294L6.29521 8.73185Z" fill="white"/>
<path fill-rule="evenodd" clip-rule="evenodd" d="M7.7158 9.33231H7.36339L7.25129 9.552H7.00131L7.55216 8.52118H7.79311L7.98059 9.552H7.7493L7.7158 9.33231ZM7.47098 9.12485H7.68294L7.63288 8.80401L7.47098 9.12485Z" fill="white"/>
<path d="M9.98683 9.13774L9.91403 9.552H9.69949L9.88118 8.52118H10.0964L10.0242 8.92835H10.472L10.5448 8.52118H10.7599L10.5783 9.552H10.3631L10.4352 9.13774H9.98683Z" fill="white"/>
<path d="M11.3894 8.51926L11.2077 9.55007L11.208 9.54879H11.7788L11.8151 9.34133H11.4595L11.4957 9.13388H11.8224L11.8587 8.92643H11.532L11.5683 8.72671H11.9239L11.9602 8.51926H11.3894Z" fill="white"/>
</svg>

<svg xmlns="http://www.w3.org/2000/svg" width="20" height="20" fill="none" viewBox="0 0 20 20">
    <path fill="#fff" fill-rule="evenodd" d="m18.295 10.053-.035-.074q-.374-.715-.754-1.43c-.025-.048-.022-.076.013-.117.399-.466.792-.934 1.192-1.398a.12.12 0 0 0 .032-.063l-.349.09c-.481.128-.966.255-1.443.385-.045.012-.065-.001-.088-.039a146 146 0 0 0-.824-1.365.2.2 0 0 0-.06-.067l-.066.365-.23 1.288c-.008.047-.02.093-.023.14-.004.044-.027.06-.067.073q-.851.267-1.701.538a.2.2 0 0 0-.076.042l1.398.556-.041.032-.87.563c-.035.023-.062.026-.101.009q-.521-.234-1.044-.464a1.1 1.1 0 0 1-.404-.296c-.247-.301-.198-.644.13-.857.108-.069.23-.12.352-.16q.836-.269 1.669-.53c.047-.015.068-.036.077-.087.075-.43.152-.863.23-1.288.041-.23.063-.465.175-.677.043-.08.094-.16.156-.228.221-.246.53-.255.766-.02.08.078.147.171.206.267q.385.63.767 1.27c.03.05.056.06.112.045q.931-.25 1.868-.496a.9.9 0 0 1 .39-.021c.287.053.413.272.316.55a1.1 1.1 0 0 1-.207.333L18.46 8.455c-.036.042-.036.072-.012.119l.78 1.475c.062.118.11.24.11.375a.604.604 0 0 1-.526.603 1.1 1.1 0 0 1-.49-.061q-.584-.18-1.172-.357c-.036-.01-.05-.025-.056-.064l-.142-.825q-.002-.008.002-.032l1.347.37" clip-rule="evenodd"/>
    <path fill="#fff" d="M8.848 9.57q.121-.001.234-.052l.029-.245a.4.4 0 0 1-.238.083c-.148 0-.242-.118-.242-.267a.37.37 0 0 1 .354-.366c.09 0 .164.035.209.085l.03-.247a.45.45 0 0 0-.216-.052.61.61 0 0 0-.603.602c0 .256.17.46.443.46"/>
    <path fill="#fff" fill-rule="evenodd" d="M5.159 9.332h-.353l-.112.22h-.25l.551-1.03h.241l.188 1.03h-.232zm-.246-.207h.212l-.05-.321z" clip-rule="evenodd"/>
    <path fill="#fff" d="m3.773 9.73-.006.005-.055-.075a7 7 0 0 0-.158-.208c-.245-.31-.562-.496-.96-.51-.696-.02-1.222.283-1.585.87a1.15 1.15 0 0 0-.163.78c.036.255.15.477.315.67q.231.268.473.526.136.145.268.292l.017.02c.098.107.196.216.276.336.147.222.11.468-.09.644a1 1 0 0 1-.22.144.61.61 0 0 1-.799-.227 2 2 0 0 1-.111-.21q-.022-.049-.046-.096l-.018-.043-.009-.023-.553.296-.349.187.043.11q.048.127.104.247c.156.32.399.548.747.65.262.078.53.086.8.043.611-.097 1.072-.416 1.365-.96.158-.296.225-.612.17-.947-.046-.285-.196-.516-.384-.722q-.172-.189-.35-.373l-.281-.297a6 6 0 0 1-.36-.422.32.32 0 0 1 .02-.42.54.54 0 0 1 .455-.178c.215.015.363.14.483.306q.045.067.087.136l.043.069.45-.336.375-.28.002.003zm13.747 4.35h.002l-.003.004zm0 0-.285-.001q-.383-.002-.77 0c-.047 0-.073-.014-.099-.053l-.5-.76-.75-1.141-.028-.042-.023-.031-.266 2.022h-.921l.01-.09.022-.172.159-1.214v-.002l.111-.846.065-.492.195-1.48a.1.1 0 0 1 .031-.054q.476-.31.954-.616l.012-.005q.006 0 .015-.004l-.287 2.19.011.009.467-.518.008-.008q.512-.57 1.033-1.143l.02.119.001.005v.001l.002.007v.002l.017.097.03.178q.038.225.078.447c.008.042-.003.068-.031.098q-.483.505-.967 1.018l-.026.029-.017.018.01.017q.008.015.02.03l1.108 1.56.553.779q.011.014.025.025l.012.013z"/>
    <path fill="#fff" fill-rule="evenodd" d="m4.168 14.019.03-.23.006.01.024.015.032.02c.4.28.846.36 1.32.288.458-.07.859-.275 1.192-.598.506-.496.77-1.088.69-1.803a1.57 1.57 0 0 0-.735-1.186c-.431-.278-.904-.328-1.398-.22-.85.186-1.58.92-1.726 1.777-.059.338-.1.677-.143 1.017l-.057.44-.136 1.031-.032.244-.03.242-.016.122.012.004.013.003h.295l.466.001c.032 0 .04-.013.045-.043q.044-.36.092-.714l.008-.059zm2.453-2.072.012.07h.005c-.028.506-.244.863-.644 1.102-.303.181-.63.232-.967.11a.916.916 0 0 1-.602-.972c.052-.57.45-1.005 1.006-1.134.504-.116.992.143 1.146.619.023.07.035.143.044.205" clip-rule="evenodd"/>
    <path fill="#fff" d="m10.49 12.92.009-.065.003-.005a1.3 1.3 0 0 1-.47.33c-.347.136-.686.136-1.004-.076-.328-.22-.468-.614-.38-1.025.13-.62.734-1.059 1.367-.992a.8.8 0 0 1 .676.461c.13.264.151.547.119.832q-.056.473-.121.945l-.057.427-.024.198-.008.07h.818l.002-.01.006-.035.039-.29v-.001q.06-.447.117-.895l.024-.185c.029-.216.058-.434.068-.652a1.57 1.57 0 0 0-.392-1.134c-.412-.474-.944-.638-1.553-.563-1.044.128-1.914 1.05-1.958 2.1-.02.451.108.86.41 1.205.561.64 1.463.685 2.153.366.014-.006.027-.03.03-.046zm3.488-2.558-.043.323-.07.527h-.513a.325.325 0 0 0-.306.22 1 1 0 0 0-.026.14l-.003.017-.258 1.958-.04.316-.024.182h-.857l.013-.103.034-.267.01-.079.158-1.19.039-.299q.05-.401.11-.802c.077-.49.564-.928 1.057-.947.162-.008.324-.006.488-.004l.227.002zm4.574 3.356v.361h.072v-.432h-.11l-.126.329-.13-.33h-.11v.433h.072v-.36h.002l.141.36h.046l.141-.36zm-.627.362v-.375h.136v-.058h-.342v.058h.135v.374z"/>
    <path fill="#fff" fill-rule="evenodd" d="M6.447 8.524h-.33l-.002-.002-.181 1.031h.215l.067-.377h.142c.225 0 .382-.15.382-.372 0-.177-.12-.28-.293-.28m-.152.208h.125c.057 0 .095.032.095.094 0 .094-.06.144-.136.144h-.126zm1.421.6h-.353l-.112.22h-.25l.551-1.03h.241l.188 1.03h-.232zm-.245-.207h.212l-.05-.321z" clip-rule="evenodd"/>
    <path fill="#fff" d="m9.987 9.138-.073.414h-.215l.182-1.03h.215l-.072.406h.448l.073-.407h.215l-.182 1.031h-.215l.072-.414zm1.403-.618-.182 1.03h.57l.037-.208h-.355l.036-.207h.326l.037-.208h-.327l.036-.2h.356l.036-.207z"/>
</svg>
